X: 15432
T: Glen Grant
R: strathspey
M: 4/4
K: Amajor
A,<A, A>E F>E C<E|E<A B>c d/c/B/A/ G/F/E/D/|
C<C A>E F>E C<E|1 B,<D C>E A2A2:|2 B,<D C>E A2A>f||
|:e>A c>A d/c/B/A/ A<f|e>A c>A e/f/g a>f|1 e>A c>A (3ABA F<A|
E<C E>FA2A>f:|2 f<a c<e A<c F<A|E<C E>F A2 A2||

